public/assets/icons/navbar/ic_sign.svg

<?xml version="1.0" encoding="utf-8"?><!-- Uploaded to: SVG Repo, www.svgrepo.com, Generator: SVG Repo Mixer Tools -->
<svg width="800px" height="800px" viewBox="0 -0.5 25 25" fill="none" xmlns="http://www.w3.org/2000/svg">
<path d="M7.04401 9.53165C7.33763 9.23949 7.33881 8.76462 7.04665 8.47099C6.75449 8.17737 6.27962 8.17619 5.98599 8.46835L7.04401 9.53165ZM2.97099 11.4683C2.67737 11.7605 2.67619 12.2354 2.96835 12.529C3.26051 12.8226 3.73538 12.8238 4.02901 12.5317L2.97099 11.4683ZM4.02901 11.4683C3.73538 11.1762 3.26051 11.1774 2.96835 11.471C2.67619 11.7646 2.67737 12.2395 2.97099 12.5317L4.02901 11.4683ZM5.98599 15.5317C6.27962 15.8238 6.75449 15.8226 7.04665 15.529C7.33881 15.2354 7.33763 14.7605 7.04401 14.4683L5.98599 15.5317ZM3.5 11.25C3.08579 11.25 2.75 11.5858 2.75 12C2.75 12.4142 3.08579 12.75 3.5 12.75V11.25ZM17.5 12.75C17.9142 12.75 18.25 12.4142 18.25 12C18.25 11.5858 17.9142 11.25 17.5 11.25V12.75ZM5.98599 8.46835L2.97099 11.4683L4.02901 12.5317L7.04401 9.53165L5.98599 8.46835ZM2.97099 12.5317L5.98599 15.5317L7.04401 14.4683L4.02901 11.4683L2.97099 12.5317ZM3.5 12.75L17.5 12.75V11.25L3.5 11.25V12.75Z" fill="#000000"/>
<path d="M9.5 15C9.5 17.2091 11.2909 19 13.5 19H17.5C19.7091 19 21.5 17.2091 21.5 15V9C21.5 6.79086 19.7091 5 17.5 5H13.5C11.2909 5 9.5 6.79086 9.5 9" stroke="#000000" stroke-width="1.5" stroke-linecap="round" stroke-linejoin="round"/>
</svg>

<svg xmlns="http://www.w3.org/2000/svg" width="800" height="800" viewBox="0 -0.5 25 25" fill="none" xmlns:v="https://vecta.io/nano"><path d="M7.044 9.532a.75.75 0 1 0-1.058-1.063l1.058 1.063zm-4.073 1.937a.75.75 0 0 0 1.058 1.063l-1.058-1.063zm1.058 0a.75.75 0 0 0-1.058 1.063l1.058-1.063zm1.957 4.063a.75.75 0 1 0 1.058-1.063l-1.058 1.063zM3.5 11.25a.75.75 0 1 0 0 1.5v-1.5zm14 1.5a.75.75 0 1 0 0-1.5v1.5zM5.986 8.468l-3.015 3 1.058 1.063 3.015-3-1.058-1.063zm-3.015 4.063l3.015 3 1.058-1.063-3.015-3-1.058 1.063zm.529.218h14v-1.5h-14v1.5z" fill="#000"/><path d="M9.5 15a4 4 0 0 0 4 4h4a4 4 0 0 0 4-4V9a4 4 0 0 0-4-4h-4a4 4 0 0 0-4 4" stroke="#000" stroke-width="1.5" stroke-linecap="round" stroke-linejoin="round"/></svg>
